X:225
T: Sean Maguire's
S: Luke O'Malley vol 1
Z: B.Black
M: 4/4
L: 1/8
R: reel
K: A
AB | cee2 fe^de | aecA EAcA | Bff2 gf^ef | bf^dB FB=dB |
cee2 fe^de | aecA EAcA | (3ded Bd (3cdc Ac | BEGB A2 :|
E2 | ac'c'2 ac'ea | (3cec Ac EAce | fBB^A Bcde | f2 bg agfe |
ac'c'2 ac'ea | (3cec Ac EAce | (3ded Bd (3cdc Ac | BEGB A2 :|
W: %space
P: version in G
K: G %Transposed from A
GA | Bdd2 ed^cd | gdBG DGBG | Aee2 fe^de | ae^cA EA=cA |
Bdd2 ed^cd | gdBG DGBG | (3cdc Ac (3BcB GB | ADFA G2 :|
D2 | gbb2 gbdg | (3BdB GB DGBd | eAA^G ABcd | e2 af gfed |
gbb2 gbdg | (3BdB GB DGBd | (3cdc Ac (3BcB GB | ADFA G2 :|
